proprietary/assets/icons/personen/vrouw-met-ketting-om-torso.svg

<svg enable-background="new 0 0 64 64" height="64" viewBox="0 0 64 64" width="64" xmlns="http://www.w3.org/2000/svg"><path d="m0 0h64v64h-64z" fill="none"/><path d="m55.2 43.8c-.1-1.5-1.3-2.7-2.8-2.8-.9 0-2.1-.1-3.4-.3.1.2.2.5.2.8 0 .8-.6 1.4-1.4 1.4s-1.4-.6-1.4-1.4c0-.4.2-.8.5-1.1-1.9-.3-3.9-.8-6-1.6-.1 0-.1-.1-.2-.1-.1-.8-.2-1.9-.4-2.9 2.8.3 5.2.6 6.9 1.2.4.1.8-.1.9-.5 1.3-5.1 1.8-8.5 1.8-12.2 0-7.5-2.8-15.5-7.1-18.1-2.8-1.6-5.8-1-5.8-1s-3-2.9-8.2-1.9c-8.4 1.5-14.8 9.7-14.8 20.9 0 3.7.6 7.2 1.8 12.2.1.4.5.7.9.5 1.8-.6 4.3-1 7.4-1.3-.1.9-.2 1.8-.3 2.8-2.3.9-4.6 1.4-6.7 1.8.3.3.5.6.5 1.1 0 .8-.6 1.4-1.4 1.4s-1.4-.6-1.4-1.4c0-.3.1-.5.2-.8-1.3.2-2.4.3-3.4.3-1.5.1-2.7 1.3-2.8 2.8-.5 8.8-.8 10.4-.8 19.4h48c0-9-.3-10.6-.8-19.2zm-28.8-4.4c.1-.6.6-5.3.6-5.3-2.5-2.5-3.6-5.6-4.1-8.3-.3-1.7-.3-3.3-.2-4.4 4.8-1.9 11.6-5.7 14.2-9.1 0 0 .3 0 .1.5-.3.8-.8 1.8-1.5 3 1.2 2.6 3.5 4.6 5.7 5.9.1 1 .1 2.5-.2 4.1-.5 3.2-2.8 7.6-5.3 9.2-1.7 1.1-4.9 1.2-6.7.4.4.8 1.3 1.8 3.2 2.3 2.5.6 4.9-.4 5.4-.8.1.8.2 1.6.3 2.3 0 .4.2 1.8 2.2 2.6-2.1 5.1-8.1 8.8-8.1 8.8s-6-3.6-8-8.8c1.9-.7 2.4-1.9 2.4-2.4zm-10.3 5.5c0-.8.6-1.4 1.4-1.4s1.4.6 1.4 1.4-.6 1.4-1.4 1.4-1.4-.6-1.4-1.4zm1.8 3.3c0-.8.6-1.4 1.4-1.4s1.4.6 1.4 1.4-.6 1.4-1.4 1.4-1.4-.7-1.4-1.4zm3.6 4.3c-.8 0-1.4-.6-1.4-1.4s.6-1.4 1.4-1.4 1.4.6 1.4 1.4c0 .7-.6 1.4-1.4 1.4zm2.6 2.7c-.8 0-1.4-.6-1.4-1.4s.6-1.4 1.4-1.4 1.4.6 1.4 1.4-.7 1.4-1.4 1.4zm2.9 2.3c-.8 0-1.4-.6-1.4-1.4s.6-1.4 1.4-1.4 1.4.6 1.4 1.4-.6 1.4-1.4 1.4zm5 4.3c-1.5 0-2.8-1.2-2.8-2.8 0-1.5 1.2-2.8 2.8-2.8s2.8 1.2 2.8 2.8c0 1.5-1.3 2.8-2.8 2.8zm5-4.3c-.8 0-1.4-.6-1.4-1.4s.6-1.4 1.4-1.4 1.4.6 1.4 1.4c-.1.8-.7 1.4-1.4 1.4zm2.9-2.3c-.8 0-1.4-.6-1.4-1.4s.6-1.4 1.4-1.4 1.4.6 1.4 1.4-.6 1.4-1.4 1.4zm2.6-2.7c-.8 0-1.4-.6-1.4-1.4s.6-1.4 1.4-1.4 1.4.6 1.4 1.4c0 .7-.7 1.4-1.4 1.4zm2.2-2.9c-.8 0-1.4-.6-1.4-1.4s.6-1.4 1.4-1.4 1.4.6 1.4 1.4-.6 1.4-1.4 1.4zm1.8-3.3c-.8 0-1.4-.6-1.4-1.4s.6-1.4 1.4-1.4 1.4.6 1.4 1.4-.6 1.4-1.4 1.4z"/></svg>

<?xml version="1.0" encoding="utf-8"?>
<!-- Generator: Adobe Illustrator 22.1.0, SVG Export Plug-In . SVG Version: 6.00 Build 0)  -->
<!DOCTYPE svg PUBLIC "-//W3C//DTD SVG 1.1//EN" "http://www.w3.org/Graphics/SVG/1.1/DTD/svg11.dtd">
<svg version="1.1" xmlns="http://www.w3.org/2000/svg" xmlns:xlink="http://www.w3.org/1999/xlink" x="0px" y="0px" width="64px"
	 height="64px" viewBox="0 0 64 64" style="enable-background:new 0 0 64 64;" xml:space="preserve">
<style type="text/css">
	.st0{fill:none;}
</style>
<g id="Box">
	<rect class="st0" width="64" height="64"/>
</g>
<g id="Icon">
	<g>
		<g>
			<path d="M55.2,43.8c-0.1-1.5-1.3-2.7-2.8-2.8c-0.9,0-2.1-0.1-3.4-0.3c0.1,0.2,0.2,0.5,0.2,0.8c0,0.8-0.6,1.4-1.4,1.4
				c-0.8,0-1.4-0.6-1.4-1.4c0-0.4,0.2-0.8,0.5-1.1c-1.9-0.3-3.9-0.8-6-1.6c-0.1,0-0.1-0.1-0.2-0.1c-0.1-0.8-0.2-1.9-0.4-2.9
				c2.8,0.3,5.2,0.6,6.9,1.2c0.4,0.1,0.8-0.1,0.9-0.5c1.3-5.1,1.8-8.5,1.8-12.2c0-7.5-2.8-15.5-7.1-18.1c-2.8-1.6-5.8-1-5.8-1
				s-3-2.9-8.2-1.9C20.4,4.8,14,13,14,24.2c0,3.7,0.6,7.2,1.8,12.2c0.1,0.4,0.5,0.7,0.9,0.5c1.8-0.6,4.3-1,7.4-1.3
				c-0.1,0.9-0.2,1.8-0.3,2.8c-2.3,0.9-4.6,1.4-6.7,1.8c0.3,0.3,0.5,0.6,0.5,1.1c0,0.8-0.6,1.4-1.4,1.4c-0.8,0-1.4-0.6-1.4-1.4
				c0-0.3,0.1-0.5,0.2-0.8c-1.3,0.2-2.4,0.3-3.4,0.3c-1.5,0.1-2.7,1.3-2.8,2.8C8.3,52.4,8,54,8,63h48C56,54,55.7,52.4,55.2,43.8z
				 M26.4,39.4c0.1-0.6,0.6-5.3,0.6-5.3c-2.5-2.5-3.6-5.6-4.1-8.3c-0.3-1.7-0.3-3.3-0.2-4.4c4.8-1.9,11.6-5.7,14.2-9.1
				c0,0,0.3,0,0.1,0.5c-0.3,0.8-0.8,1.8-1.5,3c1.2,2.6,3.5,4.6,5.7,5.9c0.1,1,0.1,2.5-0.2,4.1c-0.5,3.2-2.8,7.6-5.3,9.2
				c-1.7,1.1-4.9,1.2-6.7,0.4c0.4,0.8,1.3,1.8,3.2,2.3c2.5,0.6,4.9-0.4,5.4-0.8c0.1,0.8,0.2,1.6,0.3,2.3c0,0.4,0.2,1.8,2.2,2.6
				c-2.1,5.1-8.1,8.8-8.1,8.8S26,47,24,41.8C25.9,41.1,26.4,39.9,26.4,39.4z M16.1,44.9c0-0.8,0.6-1.4,1.4-1.4
				c0.8,0,1.4,0.6,1.4,1.4c0,0.8-0.6,1.4-1.4,1.4C16.7,46.3,16.1,45.7,16.1,44.9z M17.9,48.2c0-0.8,0.6-1.4,1.4-1.4s1.4,0.6,1.4,1.4
				s-0.6,1.4-1.4,1.4C18.5,49.6,17.9,48.9,17.9,48.2z M21.5,52.5c-0.8,0-1.4-0.6-1.4-1.4c0-0.8,0.6-1.4,1.4-1.4
				c0.8,0,1.4,0.6,1.4,1.4C22.9,51.8,22.3,52.5,21.5,52.5z M24.1,55.2c-0.8,0-1.4-0.6-1.4-1.4s0.6-1.4,1.4-1.4s1.4,0.6,1.4,1.4
				S24.8,55.2,24.1,55.2z M27,57.5c-0.8,0-1.4-0.6-1.4-1.4c0-0.8,0.6-1.4,1.4-1.4c0.8,0,1.4,0.6,1.4,1.4
				C28.4,56.9,27.8,57.5,27,57.5z M32,61.8c-1.5,0-2.8-1.2-2.8-2.8c0-1.5,1.2-2.8,2.8-2.8s2.8,1.2,2.8,2.8
				C34.8,60.5,33.5,61.8,32,61.8z M37,57.5c-0.8,0-1.4-0.6-1.4-1.4c0-0.8,0.6-1.4,1.4-1.4c0.8,0,1.4,0.6,1.4,1.4
				C38.3,56.9,37.7,57.5,37,57.5z M39.9,55.2c-0.8,0-1.4-0.6-1.4-1.4s0.6-1.4,1.4-1.4c0.8,0,1.4,0.6,1.4,1.4S40.7,55.2,39.9,55.2z
				 M42.5,52.5c-0.8,0-1.4-0.6-1.4-1.4c0-0.8,0.6-1.4,1.4-1.4s1.4,0.6,1.4,1.4C43.9,51.8,43.2,52.5,42.5,52.5z M44.7,49.6
				c-0.8,0-1.4-0.6-1.4-1.4c0-0.8,0.6-1.4,1.4-1.4s1.4,0.6,1.4,1.4S45.5,49.6,44.7,49.6z M46.5,46.3c-0.8,0-1.4-0.6-1.4-1.4
				c0-0.8,0.6-1.4,1.4-1.4s1.4,0.6,1.4,1.4C47.9,45.7,47.3,46.3,46.5,46.3z"/>
		</g>
	</g>
</g>
</svg>
